X: 139
T: Nianjie shiwu sui Fifteen years old
%%abc-version 2.0
%%abcx-abcm2ps-target-version 5.9.1 (29 Sep 2008)
%%abc-creator hum2abc beta
%%abcx-conversion-date 2013/10/02 07:44:27
%%abc-edited-by Helmut Schaffrath
%%humdrum-veritas 2836913870
%%humdrum-veritas-data 713502706
%%continueall 1
%%barnumbers 0
L: 1/8
M: 2/4
K: C
A c c G [I:setbarnb 1]| 
d2c2 | 
AG3- | 
G4 | 
A c c G | 
A c e g | 
gc3- | 
c4 | 
cA2g | 
G cA2 | 
G E D E | 
G2A2 | 
eg2c | 
A GE2 | 
DC3- | 
C4 |]  



